src/components/Icon/assets/settings.svg

<svg width="24" height="24" viewBox="0 0 24 24" fill="none" xmlns="http://www.w3.org/2000/svg">
<path fill-rule="evenodd" clip-rule="evenodd" d="M7.00018 12.0001C7.00018 9.23926 9.23852 7.00009 12.0002 7.00009C14.761 7.00009 17.0002 9.23926 17.0002 12.0001C17.0002 14.7609 14.761 17.0001 12.0002 17.0001C9.23852 17.0001 7.00018 14.7609 7.00018 12.0001ZM22.0002 13.5001V10.5001L19.7702 10.1281C19.5712 9.30609 19.2472 8.53409 18.8152 7.83209L20.1312 5.98909L18.0102 3.86809L16.1672 5.18509C15.4652 4.75309 14.6942 4.42909 13.8722 4.23009L13.5002 2.00009H10.5002L10.1282 4.23009C9.30618 4.42909 8.53418 4.75309 7.83218 5.18509L5.98918 3.86809L3.86818 5.98909L5.18418 7.83209C4.75318 8.53409 4.42818 9.30609 4.23018 10.1281L2.00018 10.5001V13.5001L4.23018 13.8721C4.42818 14.6941 4.75318 15.4661 5.18418 16.1681L3.86818 18.0111L5.98918 20.1321L7.83218 18.8151C8.53418 19.2461 9.30618 19.5711 10.1282 19.7701L10.5002 22.0001H13.5002L13.8722 19.7701C14.6942 19.5711 15.4652 19.2461 16.1672 18.8151L18.0102 20.1321L20.1312 18.0111L18.8152 16.1681C19.2472 15.4661 19.5712 14.6941 19.7702 13.8721L22.0002 13.5001Z" fill="#65676A"/>
</svg>

<svg xmlns="http://www.w3.org/2000/svg" width="24" height="24" viewBox="0 0 24 24">
    <path fill="#65676A" fill-rule="evenodd" d="M7 12c0-2.76 2.239-5 5-5s5 2.24 5 5-2.239 5-5 5-5-2.24-5-5zm15 1.5v-3l-2.23-.372c-.199-.822-.523-1.594-.955-2.296l1.316-1.843-2.12-2.12-1.844 1.316c-.702-.432-1.473-.756-2.295-.955L13.5 2h-3l-.372 2.23c-.822.2-1.594.523-2.296.955L5.99 3.868 3.87 5.99l1.315 1.843c-.43.702-.756 1.474-.954 2.296L2 10.5v3l2.23.372c.198.822.523 1.594.954 2.296l-1.316 1.843 2.121 2.121 1.843-1.317c.702.431 1.474.756 2.296.955L10.5 22h3l.372-2.23c.822-.199 1.593-.524 2.295-.955l1.843 1.317 2.121-2.12-1.316-1.844c.432-.702.756-1.474.955-2.296L22 13.5z"/>
</svg>
